src/img/mainIcon.svg

<svg fill="none" height="38" viewBox="0 0 43 38" width="43" xmlns="http://www.w3.org/2000/svg"><path d="m39.4167 33.25h-35.83337c-.65993 0-3.58333 1.7189-3.58333 2.375s2.9234 2.375 3.58333 2.375h35.83337c.6599 0 3.5833-1.7189 3.5833-2.375s-2.9234-2.375-3.5833-2.375zm-22.6945-4.75-4.7778-2.375 4.7778-2.375 2.3889-4.75 2.3889 4.75 4.7778 2.375-4.7778 2.375-1.1944 2.375h15.5277l-6.4507-14.9647c-.4613-1.0693-.5115-2.2697-.1411-3.3733l4.2029-12.537-14.0033 7.95551c-1.7666 1.00357-3.1647 2.54159-3.991 4.38999l-8.28343 18.5295h10.75003zm4.7778-16.625 1.1944-2.375 1.1945 2.375 2.3889 1.1875-2.3889 1.1875-1.1945 2.375-1.1944-2.375-2.3889-1.1875z" fill="#7a11ff" fill-opacity=".5"/></svg>

<svg width="43" height="38" viewBox="0 0 43 38" fill="none" xmlns="http://www.w3.org/2000/svg">
<path d="M39.4167 33.25H3.58333C2.9234 33.25 0 34.9689 0 35.625C0 36.2811 2.9234 38 3.58333 38H39.4167C40.0766 38 43 36.2811 43 35.625C43 34.9689 40.0766 33.25 39.4167 33.25ZM16.7222 28.5L11.9444 26.125L16.7222 23.75L19.1111 19L21.5 23.75L26.2778 26.125L21.5 28.5L20.3056 30.875H35.8333L29.3826 15.9103C28.9213 14.841 28.8711 13.6406 29.2415 12.537L33.4444 0L19.4411 7.95551C17.6745 8.95908 16.2764 10.4971 15.4501 12.3455L7.16667 30.875H17.9167L16.7222 28.5ZM21.5 11.875L22.6944 9.5L23.8889 11.875L26.2778 13.0625L23.8889 14.25L22.6944 16.625L21.5 14.25L19.1111 13.0625L21.5 11.875Z" fill="#7A11FF" fill-opacity="0.5"/>
</svg>
